static/sponsors/hackclub-bank.svg

<svg width="256" height="64" viewBox="0 0 256 64" fill="none" xmlns="http://www.w3.org/2000/svg">
<g clip-path="url(#clip0)">
<rect x="1" y="1" width="254" height="62" rx="11" fill="white" stroke="#798B96" stroke-width="2"/>
<path d="M70.792 24H72.112V21.324H73.348C75.256 21.324 76.192 20.244 76.192 18.876C76.192 17.4 75.232 16.44 73.276 16.44H70.792V24ZM73.324 17.58C74.236 17.58 74.836 18.036 74.836 18.888C74.836 19.728 74.38 20.184 73.36 20.184H72.112V17.58H73.324ZM80.6704 24.18C82.8424 24.18 84.6304 22.512 84.6304 20.22C84.6304 17.928 82.8304 16.26 80.6704 16.26C78.5224 16.26 76.7224 17.928 76.7224 20.22C76.7224 22.512 78.5104 24.18 80.6704 24.18ZM80.6704 22.956C79.1704 22.956 78.0664 21.84 78.0664 20.22C78.0664 18.6 79.1704 17.484 80.6704 17.484C82.1704 17.484 83.2984 18.6 83.2984 20.22C83.2984 21.84 82.1704 22.956 80.6704 22.956ZM86.3019 16.44H84.8619L87.0819 24H88.7979L90.3099 18.432L91.8339 24H93.5499L95.7699 16.44H94.3659L92.7219 22.62L91.0779 16.44H89.5899L87.9459 22.62L86.3019 16.44ZM96.667 24H101.575V22.836H97.987V20.76H101.395V19.596H97.987V17.604H101.575V16.44H96.667V24ZM102.667 24H103.987V21.228H105.559L106.975 24H108.511L106.867 20.952C107.779 20.556 108.235 19.764 108.235 18.828C108.235 17.388 107.275 16.44 105.319 16.44H102.667V24ZM105.367 17.58C106.279 17.58 106.879 18.024 106.879 18.84C106.879 19.656 106.423 20.088 105.403 20.088H103.987V17.58H105.367ZM109.593 24H114.501V22.836H110.913V20.76H114.321V19.596H110.913V17.604H114.501V16.44H109.593V24ZM115.593 24H117.645C120.561 24 122.229 22.488 122.229 20.22C122.229 17.952 120.561 16.44 117.645 16.44H115.593V24ZM117.801 22.812H116.913V17.628H117.801C119.661 17.628 120.897 18.492 120.897 20.22C120.897 21.948 119.661 22.812 117.801 22.812ZM125.612 24H128.66C130.388 24 131.204 23.064 131.204 21.768C131.204 21.144 130.952 20.4 129.86 20.004C130.604 19.644 130.868 19.02 130.868 18.432C130.868 17.268 130.124 16.44 128.408 16.44H125.612V24ZM128.24 17.532C129.056 17.532 129.512 17.844 129.512 18.576C129.512 19.332 129.176 19.632 128.252 19.632H126.932V17.532H128.24ZM128.48 20.688C129.428 20.688 129.848 21.06 129.848 21.804C129.848 22.536 129.44 22.908 128.492 22.908H126.932V20.688H128.48ZM134.023 24H135.343V20.868L137.983 16.44H136.519L134.683 19.608L132.871 16.44H131.347L134.023 20.94V24Z" fill="#798B96"/>
<path d="M71.08 48H74.8V42.048H80.704V48H84.424V32.88H80.704V38.808H74.8V32.88H71.08V48ZM86.0916 42.72C86.0916 46.344 88.1796 48.36 90.6516 48.36C92.0676 48.36 93.3396 47.784 94.1076 46.608V48H97.8036V37.44H94.1076V38.832C93.3396 37.656 92.0676 37.08 90.6516 37.08C88.1796 37.08 86.0916 39.096 86.0916 42.72ZM91.9716 40.08C93.2916 40.08 94.1556 41.04 94.1556 42.72C94.1556 44.4 93.2676 45.36 91.9716 45.36C90.5796 45.36 89.7876 44.232 89.7876 42.72C89.7876 41.208 90.5796 40.08 91.9716 40.08ZM103.099 42.72C103.099 40.872 104.011 39.96 105.115 39.96C105.979 39.96 106.771 40.512 106.867 41.688H110.659C110.155 38.208 107.371 37.08 105.115 37.08C102.283 37.08 99.403 38.832 99.403 42.72C99.403 46.608 102.283 48.36 105.115 48.36C107.395 48.36 110.179 47.232 110.659 43.752H106.867C106.747 44.904 105.979 45.48 105.115 45.48C104.011 45.48 103.099 44.568 103.099 42.72ZM112.166 48H115.862V43.44L119.294 48H123.806L119.342 42.432L123.47 37.44H119.438L115.862 41.592V31.68H112.166V48ZM140.254 42.048C139.75 44.52 138.142 45 136.702 45C134.446 45 132.91 43.08 132.91 40.44C132.91 37.8 134.422 35.88 136.702 35.88C138.214 35.88 139.75 36.504 140.206 38.832H144.022C143.086 33.864 139.942 32.52 136.702 32.52C132.166 32.52 129.19 35.856 129.19 40.44C129.19 45.024 132.31 48.36 136.702 48.36C139.942 48.36 143.062 47.16 144.022 42.048H140.254ZM145.611 48H149.307V31.68H145.611V48ZM154.999 37.44H151.303V44.16C151.303 46.848 152.815 48.36 155.071 48.36C156.223 48.36 157.351 47.784 158.047 46.632V48H161.743V37.44H158.047V42.792C158.047 44.496 157.375 45.24 156.511 45.24C155.599 45.24 154.999 44.544 154.999 43.104V37.44ZM175.605 42.72C175.605 39.096 173.517 37.08 171.045 37.08C169.629 37.08 168.357 37.656 167.589 38.832V31.68H163.893V48H167.589V46.608C168.357 47.784 169.629 48.36 171.045 48.36C173.517 48.36 175.605 46.344 175.605 42.72ZM169.725 40.08C171.117 40.08 171.909 41.208 171.909 42.72C171.909 44.232 171.117 45.36 169.725 45.36C168.429 45.36 167.541 44.376 167.541 42.72C167.541 41.064 168.405 40.08 169.725 40.08ZM182.057 48H188.561C192.209 48 193.961 46.104 193.961 43.464C193.961 42.264 193.457 40.8 191.057 40.08C192.761 39.384 193.361 38.112 193.361 36.888C193.361 34.704 191.921 32.88 188.105 32.88H182.057V48ZM187.721 35.64C188.921 35.64 189.617 36.12 189.617 37.248C189.617 38.496 189.017 39 187.577 39H185.777V35.64H187.721ZM188.129 41.64C189.449 41.64 190.217 42.24 190.217 43.464C190.217 44.64 189.425 45.24 188.081 45.24H185.777V41.64H188.129ZM195.146 42.72C195.146 46.344 197.234 48.36 199.706 48.36C201.122 48.36 202.394 47.784 203.162 46.608V48H206.858V37.44H203.162V38.832C202.394 37.656 201.122 37.08 199.706 37.08C197.234 37.08 195.146 39.096 195.146 42.72ZM201.026 40.08C202.346 40.08 203.21 41.04 203.21 42.72C203.21 44.4 202.322 45.36 201.026 45.36C199.634 45.36 198.842 44.232 198.842 42.72C198.842 41.208 199.634 40.08 201.026 40.08ZM209.01 48H212.706V42.216C212.706 40.728 213.402 40.08 214.53 40.08C215.562 40.08 216.114 40.776 216.114 42.216V48H219.81V41.856C219.81 38.856 218.274 37.08 215.802 37.08C214.458 37.08 213.378 37.704 212.706 38.832V37.44H209.01V48ZM221.807 48H225.503V43.44L228.935 48H233.447L228.983 42.432L233.111 37.44H229.079L225.503 41.592V31.68H221.807V48Z" fill="#17171D"/>
<circle cx="36" cy="32" r="22.5" stroke="#E42D42" stroke-width="3"/>
<path d="M22.5 44C22.5 43.172 23.172 42.5 24 42.5H48C48.828 42.5 49.5 43.172 49.5 44C49.5 44.828 48.828 45.5 48 45.5H24C23.172 45.5 22.5 44.828 22.5 44Z" fill="#E42D42"/>
<path fill-rule="evenodd" clip-rule="evenodd" d="M36 41C35.172 41 34.5 40.328 34.5 39.5V29C34.5 28.172 35.172 27.5 36 27.5C36.828 27.5 37.5 28.172 37.5 29V39.5C37.5 40.328 36.828 41 36 41Z" fill="#E42D42"/>
<path fill-rule="evenodd" clip-rule="evenodd" d="M43.5 41C42.672 41 42 40.328 42 39.5V29C42 28.172 42.672 27.5 43.5 27.5C44.328 27.5 45 28.172 45 29V39.5C45 40.328 44.328 41 43.5 41Z" fill="#E42D42"/>
<path fill-rule="evenodd" clip-rule="evenodd" d="M28.5 41C27.672 41 27 40.328 27 39.5V29C27 28.172 27.672 27.5 28.5 27.5C29.328 27.5 30 28.172 30 29V39.5C30 40.328 29.328 41 28.5 41Z" fill="#E42D42"/>
<path d="M36.0004 20.027C36.0619 20.048 36.1564 20.084 36.2914 20.144C36.6499 20.2985 37.0759 20.5205 37.6234 20.834C38.7364 21.47 40.1299 22.3685 41.6974 23.4755C44.8489 25.6985 45 26 48.4399 28.5605C49.0249 29.147 49.9759 29.147 50.5609 28.5605C51.1474 27.9755 51.1474 27.0245 50.5609 26.4395C47.25 23.75 46.6519 23.3015 43.4284 21.0245C41.8084 19.8815 40.2949 18.905 39.1114 18.2285C38.5099 17.885 37.9414 17.591 37.4959 17.396C37.1029 17.2235 36.5374 17 36.0004 17C35.4634 17 34.8979 17.2235 34.5049 17.396C34.0594 17.591 33.4909 17.885 32.8894 18.2285C31.7059 18.905 30.1924 19.8815 28.5724 21.0245C25.3489 23.3015 24.7508 23.75 21.4399 26.4395C20.8534 27.0245 20.8534 27.9755 21.4399 28.5605C22.0249 29.147 22.9759 29.147 23.5609 28.5605C27.0008 26 27.1519 25.6985 30.3034 23.4755C31.8709 22.3685 33.2644 21.47 34.3774 20.834C34.9249 20.5205 35.3509 20.2985 35.7094 20.144C35.8444 20.084 35.9389 20.048 36.0004 20.027Z" fill="#E42D42"/>
</g>
<defs>
<clipPath id="clip0">
<rect width="256" height="64" fill="white"/>
</clipPath>
</defs>
</svg>

<svg width="256" height="64" fill="none" xmlns="http://www.w3.org/2000/svg"><g clip-path="url(#clip0)"><rect x="1" y="1" width="254" height="62" rx="11" fill="#fff" stroke="#798B96" stroke-width="2"/><path d="M70.792 24h1.32v-2.676h1.236c1.908 0 2.844-1.08 2.844-2.448 0-1.476-.96-2.436-2.916-2.436h-2.484V24zm2.532-6.42c.912 0 1.512.456 1.512 1.308 0 .84-.456 1.296-1.476 1.296h-1.248V17.58h1.212zm7.346 6.6c2.172 0 3.96-1.668 3.96-3.96s-1.8-3.96-3.96-3.96c-2.148 0-3.948 1.668-3.948 3.96s1.788 3.96 3.948 3.96zm0-1.224c-1.5 0-2.604-1.116-2.604-2.736s1.104-2.736 2.604-2.736 2.628 1.116 2.628 2.736-1.128 2.736-2.628 2.736zm5.632-6.516h-1.44l2.22 7.56h1.716l1.512-5.568L91.834 24h1.716l2.22-7.56h-1.404l-1.644 6.18-1.644-6.18H89.59l-1.644 6.18-1.644-6.18zM96.667 24h4.908v-1.164h-3.588V20.76h3.408v-1.164h-3.408v-1.992h3.588V16.44h-4.908V24zm6 0h1.32v-2.772h1.572L106.975 24h1.536l-1.644-3.048c.912-.396 1.368-1.188 1.368-2.124 0-1.44-.96-2.388-2.916-2.388h-2.652V24zm2.7-6.42c.912 0 1.512.444 1.512 1.26 0 .816-.456 1.248-1.476 1.248h-1.416V17.58h1.38zm4.226 6.42h4.908v-1.164h-3.588V20.76h3.408v-1.164h-3.408v-1.992h3.588V16.44h-4.908V24zm6 0h2.052c2.916 0 4.584-1.512 4.584-3.78s-1.668-3.78-4.584-3.78h-2.052V24zm2.208-1.188h-.888v-5.184h.888c1.86 0 3.096.864 3.096 2.592 0 1.728-1.236 2.592-3.096 2.592zM125.612 24h3.048c1.728 0 2.544-.936 2.544-2.232 0-.624-.252-1.368-1.344-1.764.744-.36 1.008-.984 1.008-1.572 0-1.164-.744-1.992-2.46-1.992h-2.796V24zm2.628-6.468c.816 0 1.272.312 1.272 1.044 0 .756-.336 1.056-1.26 1.056h-1.32v-2.1h1.308zm.24 3.156c.948 0 1.368.372 1.368 1.116 0 .732-.408 1.104-1.356 1.104h-1.56v-2.22h1.548zM134.023 24h1.32v-3.132l2.64-4.428h-1.464l-1.836 3.168-1.812-3.168h-1.524l2.676 4.5V24z" fill="#798B96"/><path d="M71.08 48h3.72v-5.952h5.904V48h3.72V32.88h-3.72v5.928H74.8V32.88h-3.72V48zm15.012-5.28c0 3.624 2.088 5.64 4.56 5.64 1.416 0 2.688-.576 3.456-1.752V48h3.696V37.44h-3.696v1.392c-.768-1.176-2.04-1.752-3.456-1.752-2.472 0-4.56 2.016-4.56 5.64zm5.88-2.64c1.32 0 2.184.96 2.184 2.64 0 1.68-.888 2.64-2.184 2.64-1.392 0-2.184-1.128-2.184-2.64 0-1.512.792-2.64 2.184-2.64zm11.127 2.64c0-1.848.912-2.76 2.016-2.76.864 0 1.656.552 1.752 1.728h3.792c-.504-3.48-3.288-4.608-5.544-4.608-2.832 0-5.712 1.752-5.712 5.64s2.88 5.64 5.712 5.64c2.28 0 5.064-1.128 5.544-4.608h-3.792c-.12 1.152-.888 1.728-1.752 1.728-1.104 0-2.016-.912-2.016-2.76zm9.067 5.28h3.696v-4.56l3.432 4.56h4.512l-4.464-5.568 4.128-4.992h-4.032l-3.576 4.152V31.68h-3.696V48zm28.088-5.952C139.75 44.52 138.142 45 136.702 45c-2.256 0-3.792-1.92-3.792-4.56 0-2.64 1.512-4.56 3.792-4.56 1.512 0 3.048.624 3.504 2.952h3.816c-.936-4.968-4.08-6.312-7.32-6.312-4.536 0-7.512 3.336-7.512 7.92s3.12 7.92 7.512 7.92c3.24 0 6.36-1.2 7.32-6.312h-3.768zM145.611 48h3.696V31.68h-3.696V48zm9.388-10.56h-3.696v6.72c0 2.688 1.512 4.2 3.768 4.2 1.152 0 2.28-.576 2.976-1.728V48h3.696V37.44h-3.696v5.352c0 1.704-.672 2.448-1.536 2.448-.912 0-1.512-.696-1.512-2.136V37.44zm20.606 5.28c0-3.624-2.088-5.64-4.56-5.64-1.416 0-2.688.576-3.456 1.752V31.68h-3.696V48h3.696v-1.392c.768 1.176 2.04 1.752 3.456 1.752 2.472 0 4.56-2.016 4.56-5.64zm-5.88-2.64c1.392 0 2.184 1.128 2.184 2.64 0 1.512-.792 2.64-2.184 2.64-1.296 0-2.184-.984-2.184-2.64 0-1.656.864-2.64 2.184-2.64zM182.057 48h6.504c3.648 0 5.4-1.896 5.4-4.536 0-1.2-.504-2.664-2.904-3.384 1.704-.696 2.304-1.968 2.304-3.192 0-2.184-1.44-4.008-5.256-4.008h-6.048V48zm5.664-12.36c1.2 0 1.896.48 1.896 1.608 0 1.248-.6 1.752-2.04 1.752h-1.8v-3.36h1.944zm.408 6c1.32 0 2.088.6 2.088 1.824 0 1.176-.792 1.776-2.136 1.776h-2.304v-3.6h2.352zm7.017 1.08c0 3.624 2.088 5.64 4.56 5.64 1.416 0 2.688-.576 3.456-1.752V48h3.696V37.44h-3.696v1.392c-.768-1.176-2.04-1.752-3.456-1.752-2.472 0-4.56 2.016-4.56 5.64zm5.88-2.64c1.32 0 2.184.96 2.184 2.64 0 1.68-.888 2.64-2.184 2.64-1.392 0-2.184-1.128-2.184-2.64 0-1.512.792-2.64 2.184-2.64zM209.01 48h3.696v-5.784c0-1.488.696-2.136 1.824-2.136 1.032 0 1.584.696 1.584 2.136V48h3.696v-6.144c0-3-1.536-4.776-4.008-4.776-1.344 0-2.424.624-3.096 1.752V37.44h-3.696V48zm12.797 0h3.696v-4.56l3.432 4.56h4.512l-4.464-5.568 4.128-4.992h-4.032l-3.576 4.152V31.68h-3.696V48z" fill="#17171D"/><circle cx="36" cy="32" r="22.5" stroke="#E42D42" stroke-width="3"/><path d="M22.5 44a1.5 1.5 0 0 1 1.5-1.5h24a1.5 1.5 0 0 1 0 3H24a1.5 1.5 0 0 1-1.5-1.5z" fill="#E42D42"/><path fill-rule="evenodd" clip-rule="evenodd" d="M36 41a1.5 1.5 0 0 1-1.5-1.5V29a1.5 1.5 0 0 1 3 0v10.5A1.5 1.5 0 0 1 36 41zM43.5 41a1.5 1.5 0 0 1-1.5-1.5V29a1.5 1.5 0 0 1 3 0v10.5a1.5 1.5 0 0 1-1.5 1.5zM28.5 41a1.5 1.5 0 0 1-1.5-1.5V29a1.5 1.5 0 0 1 3 0v10.5a1.5 1.5 0 0 1-1.5 1.5z" fill="#E42D42"/><path d="M36 20.027c.062.021.156.057.291.117.359.155.785.377 1.332.69 1.113.636 2.507 1.535 4.074 2.642C44.85 25.698 45 26 48.44 28.56a1.498 1.498 0 0 0 2.12 0 1.498 1.498 0 0 0 0-2.122c-3.31-2.689-3.908-3.137-7.132-5.415-1.62-1.143-3.133-2.119-4.317-2.796a18.064 18.064 0 0 0-1.615-.832C37.103 17.224 36.537 17 36 17s-1.102.224-1.495.396c-.446.195-1.014.489-1.616.832-1.183.677-2.697 1.653-4.317 2.796-3.223 2.277-3.821 2.726-7.132 5.415a1.498 1.498 0 0 0 0 2.122 1.498 1.498 0 0 0 2.12 0C27 26 27.153 25.698 30.304 23.476c1.568-1.107 2.961-2.006 4.074-2.642.548-.314.974-.535 1.332-.69.135-.06.23-.096.291-.117z" fill="#E42D42"/></g><defs><clipPath id="clip0"><path fill="#fff" d="M0 0h256v64H0z"/></clipPath></defs></svg>
